X:1
T:The Squirrel Hunters
L:1/8
M:4/4
I:linebreak $
K:D
V:1 treble 
V:1
|: efed B2 d2 | efed B2 A2 | G2 B2 d3 d | BABc d4 | efeA B2 d2 | efeA B2 A2 | G2 B2 d2 ed |$ %7
 (3cBA A2 A4 :: e2 a2 a2 gf | edef g4 | G2 B2 d2 d2 | BABc d3 d | e2 a2 a2 gf | edef g3 g |$ %14
 G2 B2 d2 ed | (3cBA A2 A4 :| %16
